X:1
T:The Golden Ball
M:6/8
L:1/8
K:F
 C| F2 F F2 F| E2 D C2 C| F2 FF-E F| G3- G2 C| A2 F A2 B| ccc FFG|\
 A2 BG-F E| F3- F2||
